svgs/duotone/child-reaching.svg

<svg xmlns="http://www.w3.org/2000/svg" viewBox="0 0 384 512"><!--! Font Awesome Pro 6.1.1 by @fontawesome - https://fontawesome.com License - https://fontawesome.com/license (Commercial License) Copyright 2022 Fonticons, Inc. --><defs><style>.fa-secondary{opacity:.4}</style></defs><path class="fa-primary" d="M155.7 170.2C167.3 173.1 179.6 176 192.2 176C232.1 176 269.3 155.8 291 122.4L309.2 94.54C318.8 79.73 338.6 75.54 353.5 85.18C368.3 94.82 372.5 114.6 362.8 129.5L344.7 157.3C326.4 185.4 301.2 207.3 272 221.6V480C272 497.7 257.7 512 240 512C222.3 512 208 497.7 208 480V384H176V480C176 497.7 161.7 512 144 512C126.3 512 112 497.7 112 480V221.4C83.63 207.4 58.94 186.1 40.87 158.1L21.37 129.8C11.57 115 15.54 95.18 30.25 85.37C44.95 75.57 64.82 79.54 74.62 94.25L94.12 123.5C108.5 145 129.2 160.9 152.9 169.3C153.9 169.5 154.8 169.8 155.7 170.2L155.7 170.2z"/><path class="fa-secondary" d="M256 64C256 99.35 227.3 128 192 128C156.7 128 128 99.35 128 64C128 28.65 156.7 0 192 0C227.3 0 256 28.65 256 64z"/></svg>

<svg xmlns="http://www.w3.org/2000/svg" viewBox="0 0 384 512"><!--! Font Awesome Pro 6.4.2 by @fontawesome - https://fontawesome.com License - https://fontawesome.com/license (Commercial License) Copyright 2023 Fonticons, Inc. --><path class="fa-primary" style="fill:var(--fa-primary-color,inherit);opacity:var(--fa-primary-opacity,1);" d="M155.7 170.2c11.7 3.8 24 5.8 36.6 5.8c39.9 0 77.1-20.2 98.8-53.6l18.1-27.9c9.6-14.8 29.5-19 44.3-9.4s19 29.5 9.4 44.3l-18.2 27.9c-18.2 28-43.5 50-72.7 64.2V480c0 17.7-14.3 32-32 32s-32-14.3-32-32V384H176v96c0 17.7-14.3 32-32 32s-32-14.3-32-32V221.4C83.6 207.4 58.9 186.1 40.9 159L21.4 129.8c-9.8-14.7-5.8-34.6 8.9-44.4s34.6-5.8 44.4 8.9l19.5 29.2c14.3 21.5 35.1 37.4 58.8 45.8c.9 .3 1.8 .6 2.7 .9z"/><path class="fa-secondary" style="fill:var(--fa-secondary-color,inherit);opacity:var(--fa-secondary-opacity,.4);" d="M128 64a64 64 0 1 1 128 0A64 64 0 1 1 128 64z"/></svg>
